X:1
T:Miller’s Reel
L:1/8
M:2/2
I:linebreak $
K:A
V:1 treble nm="Voice" snm="Voice"
V:1
 E2 | A,2 C2 E2 D2 | E2 GB A2 cA | BEcE dEcE | BEcB AFEC |$ A,2 C2 E2 D2 | E2 GB A2 ce | %7
 fefg agaf | ecBc A2 |]:$ efg | a2 [Ag]2 a2 fece | b2 bg agfe |$ a2 ga fece | fgag fece | %14
 fdge afec | BABc A2 :| %16
